X:1
T:Count Me
T:Haldor Lillenas
T:Count Me
T:Public Domain
T:Public Domain
C:Haldor Lillenas
Z:Public Domain
%%score ( 1 2 ) ( 3 4 )
L:1/8
M:4/4
K:Db
V:1 treble 
V:2 treble 
V:3 bass 
V:4 bass 
V:1
 D[DE] | [DF]2 [DF]2 [DF]2 D2 | [DA]2 [CA]2 [DA]2 [Fd]2 | [Gc]6 [GB]2 | [FA]6 | D[DE] | %6
w: 1.~When you|the ones who love|Lord, Count me, count|me; When|you|count up|
w: 2.~When you|up those who’re saved|grace, Count me, count|me; Who|have|found in|
w: 3.~When you|up those who do|right, Count me, count|me; Who|are|walk- ing|
w: 4.~When you|up those who for-|press, Count me, count|me; Who|shall|gain the|
 [DF]2 [DF]2 [DF]2 D2 | [DA]2 [CA]2 [DA]2 [=DB]2 | (E2 E2 E2) [DB]2 | (C2 D2 E2) || %10
w: who trust His Word,|me, count me. *|||
w: a hid- ing place,|me, count me. Count|me * * with|child- * *|
w: the Gos- pel light,|me, count me. *|||
w: of right- eous- ness,|me, count me. *|||
"^Refrain" [GA]2 | [Fd]2 [Fd][Fd] [Gd][Gd][Ac][GB] | [FA]2 [FA]2 [DF]2 [DA]2 | %13
w: |||
w: of|the heav’n- ly King; Count me with|the serv- ants who|
w: |||
w: |||
 [CG]2 [CG][CG] [CE][CE][DF][CG] | [CB]2 [CA]2 [DF]2 [FA]2 | [Fd]2 [Fd][Fd] [Fd][Fd][Fc][Fd] | %16
w: |||
w: would serv- ice bring; Count me with|the ran- somed who|His prais- es sing; Count me, count|
w: |||
w: |||
 [Ge]2 [Gd]2 [GB]2 [=EB]2 | (F2 E2 F2) [Fe]2 | (F2 G2 [Fd]2) |] %19
w: |||
w: me. * * *|||
w: |||
w: |||
V:2
 D x | x6 D2 | x8 | x8 | x6 | D x | x6 D2 | x8 | c6 x2 | A6 || x2 | x8 | x8 | x8 | x8 | x8 | x8 | %17
w: count|the||||those|Count|||||||||||
w: count|by||||Christ|Count||the|ren||||||||
w: count|the||||in|Count|||||||||||
w: count|ward||||crown|Count|||||||||||
 A6 x2 | d4- x2 |] %19
w: ||
w: ||
w: ||
w: ||
V:3
 [D,F,][D,G,] | [D,A,]2 [D,A,]2 [D,A,]2 [D,F,]2 | [D,F,]2 [E,G,]2 [F,A,]2 z2 | %3
w: ~ ~|~ ~ ~ ~|~ ~ ~|
 z2 ([E,A,]2 [A,,A,]2) z2 | z2 ([D,A,]2 [D,D]2) | [D,F,][D,G,] | [D,A,]2 [D,A,]2 [D,A,]2 [D,F,]2 | %7
w: ~ *|~ *|~ ~|~ ~ ~ ~|
 [D,F,]2 [E,G,]2 [F,A,]2 [_F,A,]2 | ([E,A,]2 [E,A,]2) ([E,A,]2 [E,=G,]2) | A,2 (F,2 [A,,G,]2) || %10
w: ~ ~ ~ ~|Count * me, *|count me. *|
 A,2 | [D,A,]2 [D,A,][D,A,] [G,B,][G,B,][G,C][G,D] | [D,D]2 [D,D]2 [D,A,]2 [D,F,]2 | %13
w: ~|~ ~ ~ ~ ~ ~ ~|~ ~ ~ ~|
 [E,A,]2 [E,A,][E,A,] [G,A,][G,A,][F,A,][E,A,] | [A,,A,]2 [A,,A,]2 [D,A,]2 [D,D]2 | %15
w: ~ ~ ~ ~ ~ ~ ~|~ ~ ~ ~|
 [D,A,]2 [D,A,][D,A,] [D,_C][D,C][D,A,][D,C] | [G,B,]2 [G,B,]2 [G,D]2 [=G,D]2 | %17
w: ~ ~ ~ ~ ~ ~ ~|~ ~ ~ Count|
 [A,D]2 [A,D]2 ([A,C]2 [A,,C]2) | D2 B,2 [D,A,]2 |] %19
w: me, count me. *||
V:4
 x2 | x8 | x8 | x8 | x6 | x2 | x8 | x8 | x8 | A,,4 x2 || A,2 | x8 | x8 | x8 | x8 | x8 | x8 | x8 | %18
w: |||||||||~|~||||||||
 D,4- x2 |] %19
w: |

